src/images/site-logo-black.svg

<svg viewBox="0 0 111.27 80" xmlns="http://www.w3.org/2000/svg"><path d="m.11 59.92v-59.92h17.1c6.73 0 11.37.33 14 .88a19.4 19.4 0 0 1 6.86 3.12 15.41 15.41 0 0 1 5 6.29 19 19 0 0 1 1.77 8.39c0 4.63-1.1 8.39-3.42 11.26a16.63 16.63 0 0 1 -9.93 5.74l16.29 24.13h-18.54l-13.79-23.4v23.4h-15.34zm15.34-31.67h3c3.53 0 6.07-.55 7.72-1.77s2.43-3.09 2.43-5.63c0-3-.77-5.19-2.32-6.4s-4.08-1.88-7.61-1.88h-3.33v15.68z"/><path d="m51.97 59.92v-59.92h16.11v27.25l18.98-27.25h18.98l-22.07 29.24 24.06 30.68h-20.31l-19.53-26.93v26.93z"/><path d="m.11 67.2a.24.24 0 0 1 .22-.2h2.21c.11 0 .22 0 .33.22l3.2 7.17h.11l3.09-7.19c0-.11.11-.22.33-.22h2.21a.24.24 0 0 1 .22.22v12.25a.24.24 0 0 1 -.22.22h-2.1a.24.24 0 0 1 -.22-.22v-7.06h-.11l-2.38 5.29c-.11.22-.22.22-.33.22h-1.37c-.22 0-.33-.11-.33-.22l-2.32-5.3h-.11v7.06a.24.24 0 0 1 -.22.22h-2.1a.24.24 0 0 1 -.22-.21v-12.25z"/><path d="m19.42 67.2a.24.24 0 0 1 .22-.22h2.36a.24.24 0 0 1 .22.22l4.3 12.25c0 .11 0 .22-.11.22h-2.47a.24.24 0 0 1 -.22-.22l-.72-2.21h-4.46l-.66 2.21a.24.24 0 0 1 -.22.22h-2.43c-.11 0-.22-.11-.11-.22zm2.87 7.72-1.43-4.41h-.11l-1.43 4.41z"/><path d="m29 73.38a11 11 0 0 1 .35-3.38 4.33 4.33 0 0 1 4.52-3.09 4.52 4.52 0 0 1 4.41 2.76c0 .11 0 .22-.11.22l-2.1 1c-.11 0-.22 0-.22-.11a2.16 2.16 0 0 0 -2-1.43 1.81 1.81 0 0 0 -1.85 1.38 9.75 9.75 0 0 0 -.22 2.76c0 1.88 0 2.21.22 2.76a1.89 1.89 0 0 0 1.88 1.43 2.05 2.05 0 0 0 2-1.43c0-.11.11-.11.22-.11l2 .88c.11 0 .11.11.11.22a4.32 4.32 0 0 1 -4.44 2.76 4.33 4.33 0 0 1 -4.52-3.09 14.21 14.21 0 0 1 -.25-3.53z"/><path d="m41.82 67.2a.24.24 0 0 1 .18-.2h2.32a.24.24 0 0 1 .22.22v4.74c0 .11 0 .11.11.11h4.08c.11 0 .11 0 .11-.11v-4.76a.24.24 0 0 1 .26-.2h2.32a.24.24 0 0 1 .22.22v12.23a.24.24 0 0 1 -.22.22h-2.32a.24.24 0 0 1 -.22-.22v-4.86c0-.11 0-.11-.11-.11h-4.08c-.11 0-.11 0-.11.11v4.86a.24.24 0 0 1 -.22.22h-2.36a.24.24 0 0 1 -.22-.22v-12.25z"/><path d="m55.83 67.2a.24.24 0 0 1 .22-.22h2.32a.24.24 0 0 1 .22.22v12.25a.24.24 0 0 1 -.22.22h-2.31a.24.24 0 0 1 -.22-.22z"/><path d="m62.9 67.2a.24.24 0 0 1 .22-.22h2.21c.11 0 .22 0 .33.22l4.41 7.94h.11v-7.94a.24.24 0 0 1 .22-.2h2.1a.24.24 0 0 1 .22.22v12.23a.24.24 0 0 1 -.22.22h-2.21c-.11 0-.22-.11-.33-.22l-4.42-7.95h-.11v7.94a.24.24 0 0 1 -.22.22h-2.1a.24.24 0 0 1 -.22-.22z"/><path d="m76.8 67.2a.24.24 0 0 1 .2-.2h8.06a.24.24 0 0 1 .22.22v2a.24.24 0 0 1 -.22.22h-5.39c-.11 0-.11 0-.11.11v2.54c0 .11 0 .11.11.11h4.52a.24.24 0 0 1 .22.22v2a.24.24 0 0 1 -.22.22h-4.52c-.11 0-.11 0-.11.11v2.65c0 .11 0 .11.11.11h5.41a.24.24 0 0 1 .22.22v2a.24.24 0 0 1 -.22.22h-8.08a.24.24 0 0 1 -.22-.22v-12.53z"/><path d="m96.11 79.67c-.22 0-.22-.11-.33-.22l-2.21-4.63h-1.65c-.11 0-.11 0-.11.11v4.52a.24.24 0 0 1 -.22.22h-2.32a.24.24 0 0 1 -.22-.22v-12.25a.24.24 0 0 1 .22-.22h5.08c2.54 0 4.3 1.66 4.3 3.86a3.81 3.81 0 0 1 -2.21 3.53l2.54 5c0 .11 0 .22-.11.22h-2.76zm-.22-8.67a1.48 1.48 0 0 0 -1.66-1.54h-2.23c-.11 0-.11 0-.11.11v2.87c0 .11 0 .11.11.11h2.21a1.48 1.48 0 0 0 1.68-1.55z"/><path d="m104.94 79.67a.24.24 0 0 1 -.22-.22v-4.86l-3.72-7.39c0-.11 0-.22.11-.22h2.43c.11 0 .22 0 .33.22l2.32 4.63 2.32-4.63c.11-.11.11-.22.33-.22h2.32c.11 0 .22.11.11.22l-3.75 7.39v4.86a.24.24 0 0 1 -.22.22z"/></svg>

<svg xmlns="http://www.w3.org/2000/svg" viewBox="0 0 111.27 80"><title>site-logo-black</title><g id="Layer_2" data-name="Layer 2"><g id="Layer_1-2" data-name="Layer 1"><g id="Page-1"><g id="logo-rk-machinery"><g id="Group"><path id="Shape" d="M.11,59.92V0h17.1c6.73,0,11.37.33,14,.88A19.4,19.4,0,0,1,38.07,4a15.41,15.41,0,0,1,5,6.29,19,19,0,0,1,1.77,8.39c0,4.63-1.1,8.39-3.42,11.26a16.63,16.63,0,0,1-9.93,5.74L47.78,59.81H29.24L15.45,36.41V59.81H.11ZM15.45,28.25h3c3.53,0,6.07-.55,7.72-1.77s2.43-3.09,2.43-5.63c0-3-.77-5.19-2.32-6.4s-4.08-1.88-7.61-1.88H15.34V28.25Z"/><polygon id="Shape-2" data-name="Shape" points="51.97 59.92 51.97 0 68.08 0 68.08 27.25 87.06 0 106.04 0 83.97 29.24 108.03 59.92 87.72 59.92 68.19 32.99 68.19 59.92 51.97 59.92"/></g><g id="Group-2" data-name="Group"><path id="Shape-3" data-name="Shape" d="M.11,67.2A.24.24,0,0,1,.33,67H2.54c.11,0,.22,0,.33.22l3.2,7.17h.11L9.27,67.2c0-.11.11-.22.33-.22h2.21a.24.24,0,0,1,.22.22V79.45a.24.24,0,0,1-.22.22H9.71a.24.24,0,0,1-.22-.22V72.39H9.38L7,77.68c-.11.22-.22.22-.33.22H5.3c-.22,0-.33-.11-.33-.22l-2.32-5.3H2.54v7.06a.24.24,0,0,1-.22.22H.22A.24.24,0,0,1,0,79.45V67.2Z"/><path id="Shape-4" data-name="Shape" d="M19.42,67.2a.24.24,0,0,1,.22-.22H22a.24.24,0,0,1,.22.22l4.3,12.25c0,.11,0,.22-.11.22H23.94a.24.24,0,0,1-.22-.22L23,77.24H18.54l-.66,2.21a.24.24,0,0,1-.22.22H15.23c-.11,0-.22-.11-.11-.22Zm2.87,7.72-1.43-4.41h-.11l-1.43,4.41Z"/><path id="Shape-5" data-name="Shape" d="M29,73.38A11,11,0,0,1,29.35,70a4.33,4.33,0,0,1,4.52-3.09,4.52,4.52,0,0,1,4.41,2.76c0,.11,0,.22-.11.22l-2.1,1c-.11,0-.22,0-.22-.11a2.16,2.16,0,0,0-2-1.43A1.81,1.81,0,0,0,32,70.73a9.75,9.75,0,0,0-.22,2.76c0,1.88,0,2.21.22,2.76a1.89,1.89,0,0,0,1.88,1.43,2.05,2.05,0,0,0,2-1.43c0-.11.11-.11.22-.11l2,.88c.11,0,.11.11.11.22A4.32,4.32,0,0,1,33.77,80a4.33,4.33,0,0,1-4.52-3.09A14.21,14.21,0,0,1,29,73.38Z"/><path id="Shape-6" data-name="Shape" d="M41.82,67.2A.24.24,0,0,1,42,67h2.32a.24.24,0,0,1,.22.22v4.74c0,.11,0,.11.11.11h4.08c.11,0,.11,0,.11-.11V67.2A.24.24,0,0,1,49.1,67h2.32a.24.24,0,0,1,.22.22V79.45a.24.24,0,0,1-.22.22H49.1a.24.24,0,0,1-.22-.22V74.59c0-.11,0-.11-.11-.11H44.69c-.11,0-.11,0-.11.11v4.86a.24.24,0,0,1-.22.22H42a.24.24,0,0,1-.22-.22V67.2Z"/><path id="Shape-7" data-name="Shape" d="M55.83,67.2a.24.24,0,0,1,.22-.22h2.32a.24.24,0,0,1,.22.22V79.45a.24.24,0,0,1-.22.22H56.06a.24.24,0,0,1-.22-.22Z"/><path id="Shape-8" data-name="Shape" d="M62.9,67.2a.24.24,0,0,1,.22-.22h2.21c.11,0,.22,0,.33.22l4.41,7.94h.11V67.2A.24.24,0,0,1,70.4,67h2.1a.24.24,0,0,1,.22.22V79.45a.24.24,0,0,1-.22.22H70.29c-.11,0-.22-.11-.33-.22L65.54,71.5h-.11v7.94a.24.24,0,0,1-.22.22h-2.1a.24.24,0,0,1-.22-.22Z"/><path id="Shape-9" data-name="Shape" d="M76.8,67.2A.24.24,0,0,1,77,67h8.06a.24.24,0,0,1,.22.22v2a.24.24,0,0,1-.22.22H79.67c-.11,0-.11,0-.11.11v2.54c0,.11,0,.11.11.11h4.52a.24.24,0,0,1,.22.22v2a.24.24,0,0,1-.22.22H79.67c-.11,0-.11,0-.11.11v2.65c0,.11,0,.11.11.11h5.41a.24.24,0,0,1,.22.22v2a.24.24,0,0,1-.22.22H77a.24.24,0,0,1-.22-.22V67.2Z"/><path id="Shape-10" data-name="Shape" d="M96.11,79.67c-.22,0-.22-.11-.33-.22l-2.21-4.63H91.92c-.11,0-.11,0-.11.11v4.52a.24.24,0,0,1-.22.22H89.27a.24.24,0,0,1-.22-.22V67.2a.24.24,0,0,1,.22-.22h5.08c2.54,0,4.3,1.66,4.3,3.86a3.81,3.81,0,0,1-2.21,3.53l2.54,5c0,.11,0,.22-.11.22H96.11ZM95.89,71a1.48,1.48,0,0,0-1.66-1.54H92c-.11,0-.11,0-.11.11v2.87c0,.11,0,.11.11.11h2.21A1.48,1.48,0,0,0,95.89,71Z"/><path id="Shape-11" data-name="Shape" d="M104.94,79.67a.24.24,0,0,1-.22-.22V74.59L101,67.2c0-.11,0-.22.11-.22h2.43c.11,0,.22,0,.33.22l2.32,4.63h0l2.32-4.63c.11-.11.11-.22.33-.22h2.32c.11,0,.22.11.11.22l-3.75,7.39v4.86a.24.24,0,0,1-.22.22Z"/></g></g></g></g></g></svg>
